build/Karasa-Jaga/scalable/apps/file-roller-symbolic.svg

<svg height="16.03" width="16.054" xmlns="http://www.w3.org/2000/svg"><g fill="#bebebe"><rect height="6.054421" rx=".356142" ry="1.195057" width="13.635166" x="1.209417" y="8.82429"/><path d="m2.5335915 4.558341c-.2541152 0-.459306.2639563-.459306.5937874v.11793 1.2351606 1.8165344h2.3917013v-1.8165344-1.2351606-.11793c0-.3298311-.2051908-.5937874-.4593059-.5937874z"/><path d="m12.047321 4.558341c-.254116 0-.459306.2639563-.459306.5937874v.11793 1.2351606 1.8165344h2.391701v-1.8165344-1.2351606-.11793c0-.3298311-.205191-.5937874-.459306-.5937874z"/><path d="m6.0839844 1.1503906v5.2910156h3.8847656v-5.2910156zm.9160156 1.2539063h2.0546875v1.9140625h-2.0546875z"/><path d="m5.207793-8.321754h5.638414v2.186579h-5.638414z" transform="scale(1 -1)"/></g></svg>

<?xml version="1.0" encoding="UTF-8" standalone="no"?>
<!-- Created with Inkscape (http://www.inkscape.org/) -->

<svg
   xmlns:dc="http://purl.org/dc/elements/1.1/"
   xmlns:cc="http://creativecommons.org/ns#"
   xmlns:rdf="http://www.w3.org/1999/02/22-rdf-syntax-ns#"
   xmlns:svg="http://www.w3.org/2000/svg"
   xmlns="http://www.w3.org/2000/svg"
   xmlns:sodipodi="http://sodipodi.sourceforge.net/DTD/sodipodi-0.dtd"
   xmlns:inkscape="http://www.inkscape.org/namespaces/inkscape"
   id="svg7384"
   height="16.03"
   width="16.054"
   version="1.1"
   inkscape:version="0.92.2 (unknown)"
   sodipodi:docname="file-roller-symbolic.svg">
  <defs
     id="defs3108" />
  <sodipodi:namedview
     pagecolor="#ffffff"
     bordercolor="#666666"
     borderopacity="1"
     objecttolerance="10"
     gridtolerance="10"
     guidetolerance="10"
     inkscape:pageopacity="0"
     inkscape:pageshadow="2"
     inkscape:window-width="1366"
     inkscape:window-height="716"
     id="namedview3106"
     showgrid="false"
     inkscape:zoom="29.44479"
     inkscape:cx="8.7813885"
     inkscape:cy="11.855795"
     inkscape:window-x="0"
     inkscape:window-y="27"
     inkscape:window-maximized="1"
     inkscape:current-layer="svg7384" />
  <metadata
     id="metadata90">
    <rdf:RDF>
      <cc:Work
         rdf:about="">
        <dc:format>image/svg+xml</dc:format>
        <dc:type
           rdf:resource="http://purl.org/dc/dcmitype/StillImage" />
        <dc:title>Gnome Symbolic Icon Theme</dc:title>
      </cc:Work>
    </rdf:RDF>
  </metadata>
  <title
     id="title9167">Gnome Symbolic Icon Theme</title>
  <rect
     style="opacity:1;fill:#bebebe;fill-opacity:1;stroke:none;stroke-width:1.21806741"
     id="rect936"
     width="13.635166"
     height="6.0544209"
     x="1.2094173"
     y="8.8242903"
     ry="1.1950566"
     rx="0.3561424" />
  <path
     style="opacity:1;fill:#bebebe;fill-opacity:1;stroke:none;stroke-width:0.95384729"
     d="m 2.5335915,4.558341 c -0.2541152,0 -0.459306,0.2639563 -0.459306,0.5937874 v 0.11793 1.2351606 1.8165344 H 4.4659868 V 6.505219 5.2700584 5.1521284 c 0,-0.3298311 -0.2051908,-0.5937874 -0.4593059,-0.5937874 z"
     id="rect938"
     inkscape:connector-curvature="0" />
  <path
     id="path943"
     d="m 12.047321,4.558341 c -0.254116,0 -0.459306,0.2639563 -0.459306,0.5937874 v 0.11793 1.2351606 1.8165344 h 2.391701 V 6.505219 5.2700584 5.1521284 c 0,-0.3298311 -0.205191,-0.5937874 -0.459306,-0.5937874 z"
     style="opacity:1;fill:#bebebe;fill-opacity:1;stroke:none;stroke-width:0.95384729"
     inkscape:connector-curvature="0" />
  <path
     style="opacity:1;fill:#bebebe;fill-opacity:1;stroke:none;stroke-width:1.03515244"
     d="M 6.0839844 1.1503906 L 6.0839844 6.4414062 L 9.96875 6.4414062 L 9.96875 1.1503906 L 6.0839844 1.1503906 z M 7 2.4042969 L 9.0546875 2.4042969 L 9.0546875 4.3183594 L 7 4.3183594 L 7 2.4042969 z "
     id="rect945" />
  <rect
     y="-8.3217535"
     x="5.2077932"
     height="2.1865788"
     width="5.6384144"
     id="rect949"
     style="opacity:1;fill:#bebebe;fill-opacity:1;stroke:none;stroke-width:0.801673"
     transform="scale(1,-1)" />
</svg>
